deepin/status/network-wireless-signal-excellent-secure-symbolic.svg

<?xml version="1.0" encoding="UTF-8" standalone="no"?>
<svg width="16px" height="16px" viewBox="0 0 16 16" version="1.1" xmlns="http://www.w3.org/2000/svg" xmlns:xlink="http://www.w3.org/1999/xlink">
    <!-- Generator: Sketch 39.1 (31720) - http://www.bohemiancoding.com/sketch -->
    <title>network-wireless-signal-full-secure-symbolic</title>
    <desc>Created with Sketch.</desc>
    <defs></defs>
    <g id="Page-1" stroke="none" stroke-width="1" fill="none" fill-rule="evenodd">
        <g id="network-wireless-signal-full-secure-symbolic">
            <g id="Group-7">
                <polygon id="Fill-46" points="0 16 16 16 16 0 0 0"></polygon>
                <path d="M8,12.0149 C7.498,12.0179 7.001,12.2139 6.661,12.5769 L8,14.0029 L8.08,13.9179 C8.032,13.7699 8,13.6149 8,13.4509 L8,12.0149 Z" id="Fill-142" fill="#FFFFFF"></path>
                <path d="M1.026,6.579 C2.811,4.678 5.275,3.5 7.992,3.5 C10.71,3.5 13.174,4.678 14.958,6.579" id="Stroke-132" stroke="#FFFFFF" stroke-width="1.2" stroke-linecap="round"></path>
                <path d="M3.0163,8.6991 C4.2913,7.3411 6.0513,6.5001 7.9923,6.5001 C8.53115473,6.5001 9.05605956,6.56491691 9.56051002,6.68761833" id="Stroke-134" stroke="#FFFFFF" stroke-width="1.2" stroke-linecap="round"></path>
                <path d="M5.0055,10.818 C5.7695,10.004 6.8255,9.5 7.9925,9.5" id="Stroke-136" stroke="#FFFFFF" stroke-width="1.2" stroke-linecap="round"></path>
                <path d="M11,8.7246 C11,8.3256 11.325,7.9996 11.725,7.9996 L12.275,7.9996 C12.675,7.9996 13,8.3256 13,8.7246 L13,9.9996 L11,9.9996 L11,8.7246 Z M14.451,9.9996 L14,9.9996 L14,8.7246 C14,7.7736 13.227,6.9996 12.275,6.9996 L11.725,6.9996 C10.773,6.9996 10,7.7736 10,8.7246 L10,9.9996 L9.549,9.9996 C9.246,9.9996 9,10.2456 9,10.5496 L9,13.4506 C9,13.7546 9.246,13.9996 9.549,13.9996 L14.451,13.9996 C14.754,13.9996 15,13.7546 15,13.4506 L15,10.5496 C15,10.2456 14.754,9.9996 14.451,9.9996 L14.451,9.9996 Z" id="Fill-329" fill="#FFFFFF"></path>
            </g>
        </g>
    </g>
</svg>

<?xml version="1.0" encoding="iso-8859-1"?>
<!-- Generator: Adobe Illustrator 18.0.0, SVG Export Plug-In . SVG Version: 6.00 Build 0)  -->
<!DOCTYPE svg PUBLIC "-//W3C//DTD SVG 1.1//EN" "http://www.w3.org/Graphics/SVG/1.1/DTD/svg11.dtd">
<svg version="1.1" id="&#x56FE;&#x5C42;_1" xmlns="http://www.w3.org/2000/svg" xmlns:xlink="http://www.w3.org/1999/xlink" x="0px"
	 y="0px" viewBox="0 0 16 16" style="enable-background:new 0 0 16 16;" xml:space="preserve">
<g>
	<path style="fill:#FFFFFF;" d="M14.958,7.079c-0.133,0-0.267-0.053-0.364-0.158C12.826,5.037,10.481,4,7.992,4
		S3.158,5.037,1.391,6.921C1.202,7.124,0.884,7.132,0.685,6.944C0.482,6.755,0.473,6.439,0.662,6.238C2.62,4.15,5.224,3,7.992,3
		s5.372,1.149,7.33,3.237c0.189,0.201,0.18,0.518-0.022,0.706C15.204,7.034,15.081,7.079,14.958,7.079z"/>
</g>
<g>
	<path style="fill:#FFFFFF;" d="M8,12.007c-0.502,0.003-0.999,0.199-1.339,0.562L8,13.996l0.08-0.085
		C8.032,13.762,8,13.608,8,13.444V12.007z"/>
</g>
<path style="fill:#FFFFFF;" d="M8.969,9.111C8.651,9.041,8.325,9,7.992,9c-1.269,0-2.459,0.524-3.351,1.476
	c-0.189,0.201-0.179,0.518,0.022,0.706c0.097,0.091,0.219,0.136,0.342,0.136c0.133,0,0.267-0.053,0.364-0.158
	c0.724-0.771,1.723-1.136,2.714-1.112C8.228,9.621,8.554,9.28,8.969,9.111z"/>
<path style="fill:#FFFFFF;" d="M10.321,6.394C9.578,6.138,8.796,6,7.992,6c-2.018,0-3.914,0.837-5.34,2.357
	c-0.189,0.201-0.18,0.518,0.022,0.706c0.198,0.188,0.518,0.181,0.706-0.022C4.616,7.725,6.254,7,7.992,7
	c0.505,0,0.999,0.068,1.48,0.187C9.693,6.864,9.985,6.598,10.321,6.394z"/>
<path style="fill:#FFFFFF;" d="M14.451,9.993H14V8.717c0-0.951-0.773-1.725-1.725-1.725h-0.551C10.773,6.993,10,7.766,10,8.717
	v1.275H9.549C9.246,9.993,9,10.238,9,10.542v2.902c0,0.303,0.246,0.549,0.549,0.549h4.902c0.303,0,0.549-0.246,0.549-0.549v-2.902
	C15,10.238,14.754,9.993,14.451,9.993z M11,8.717c0-0.399,0.325-0.725,0.725-0.725h0.551C12.675,7.993,13,8.318,13,8.717v1.275h-2
	V8.717z"/>
</svg>
